icons/plexis/48/qlcplus.svg

<svg viewBox="0 0 48 48" xmlns="http://www.w3.org/2000/svg" xmlns:xlink="http://www.w3.org/1999/xlink">
  <linearGradient id="a" gradientTransform="matrix(0 -1 1 0 -.0000015 47.999998)" gradientUnits="userSpaceOnUse" x1="1" x2="47">
    <stop offset="0" stop-color="#3d3d3d"/>
    <stop offset="1" stop-color="#474747"/>
  </linearGradient>
  <path d="m47 24c0 22.703-.297 23-23 23-22.703 0-23-.297-23-23 0-22.703.297-23 23-23 22.703 0 23 .297 23 23z" fill="url(#a)"/>
  <path d="m25 12c-1.112 0-2.212.195-3.281.563-1.073.367-2.028.863-2.875 1.5-.851.64-1.54 1.441-2.063 2.406-.519.965-.781 2.01-.781 3.125 0 1.75.602 3.254 1.813 4.531.528.551.965 1.039 1.313 1.469.344.425.679.977 1.031 1.625.346.641.539 1.227.594 1.781.017.001.034.017.051.027h-.037c-.551.317-.826.782-.826 1.391 0 .418.143.777.439 1.082-.293.305-.439.664-.439 1.082 0 .59.264 1.047.791 1.371-.157.262-.227.527-.227.797 0 .519.184.918.555 1.203.367.281.821.422 1.363.422.231.496.58.891 1.053 1.184.464.293.973.441 1.527.441.55 0 1.053-.148 1.525-.441.473-.293.825-.688 1.059-1.184.539 0 .987-.141 1.354-.422.371-.285.559-.683.559-1.203 0-.27-.077-.535-.229-.797.527-.324.787-.781.787-1.371 0-.418-.145-.777-.438-1.082.293-.305.438-.664.438-1.082 0-.61-.276-1.075-.822-1.391h-.051c.012-.001.026-.017.037-.027.051-.554.276-1.141.625-1.781.352-.648.683-1.199 1.031-1.625.348-.43.786-.918 1.313-1.469 1.207-1.277 1.813-2.781 1.813-4.531 0-1.121-.262-2.16-.781-3.125-.524-.965-1.211-1.765-2.063-2.406-.847-.637-1.802-1.133-2.875-1.5-1.069-.367-2.169-.563-3.281-.563z" opacity=".1" transform="matrix(1 0 0 1 .00000043 -.0000001)"/>
  <g transform="scale(3.543307)">
    <path d="m24 11c-1.112 0-2.212.194-3.281.563-1.073.367-2.028.863-2.875 1.5-.851.64-1.54 1.441-2.063 2.406-.519.965-.781 2.01-.781 3.125 0 1.75.601 3.254 1.813 4.531.528.551.966 1.039 1.314 1.469.344.425.677.977 1.029 1.625.346.641.541 1.227.596 1.781l2.25 2h3.998l2.219-2c .051-.554.276-1.141.625-1.781.352-.648.683-1.199 1.031-1.625.348-.43.785-.918 1.313-1.469 1.207-1.277 1.814-2.781 1.814-4.531 0-1.121-.262-2.16-.781-3.125-.524-.965-1.212-1.765-2.064-2.406-.847-.637-1.802-1.133-2.875-1.5-1.069-.367-2.167-.563-3.279-.563" fill="#efdf81" transform="scale(.28222223)"/>
    <path d="m7.968 7.91c.154.089.232.22.232.393 0 .118-.041.219-.124.305.083.086.124.187.124.305 0 .167-.074.295-.223.387.043.074.065.149.065.225 0 .147-.053.259-.158.34-.104.079-.23.119-.382.119-.066.14-.165.251-.299.334-.133.083-.276.124-.431.124-.157 0-.3-.042-.431-.124-.133-.083-.232-.194-.298-.334-.153 0-.281-.04-.384-.119-.105-.08-.157-.193-.157-.34 0-.076.02-.151.064-.225-.149-.091-.224-.22-.224-.387 0-.118.042-.219.124-.305-.084-.086-.124-.187-.124-.305 0-.172.078-.303.234-.393" fill="#c6caca"/>
    <path d="m5.556 9.313c-.037.068-.053.142-.053.212 0 .025.006.048.009.071h2.523c0-.023.009-.046.009-.071 0-.07-.017-.143-.053-.212h-2.434z" fill="#dde5e5"/>
    <path d="m5.379 8.749c-.021.051-.035.109-.035.168 0 .042.008.078.018.115h2.822c.009-.037.018-.073.018-.115 0-.059-.015-.117-.035-.168h-2.787z" fill="#dde5e5"/>
    <path d="m5.362 8.184c-.001.038-.018.072-.018.115 0 .059.006.117.027.168h2.796c.021-.051.035-.109.035-.168 0-.043-.008-.077-.018-.115z" fill="#dde5e5"/>
  </g>
  <path d="m24 15v4h-4v2h4v4h2v-4h4v-2h-4v-4z" fill-opacity=".098"/>
  <path d="m23 14v4h-4v2h4v4h2v-4h4v-2h-4v-4z" fill="#d5584f"/>
</svg>

<svg xmlns="http://www.w3.org/2000/svg" viewBox="0 0 48 48">
 <defs>
  <linearGradient id="linearGradient3764" x1="1" x2="47" gradientUnits="userSpaceOnUse" gradientTransform="matrix(0,-1,1,0,-1.5e-6,47.999998)">
   <stop style="stop-color:#3d3d3d;stop-opacity:1"/>
   <stop offset="1" style="stop-color:#474747;stop-opacity:1"/>
  </linearGradient>
 </defs>
 <g>
  
  
  
 </g>
 <g>
  <path d="m 47,24 C 47,46.703 46.703,47 24,47 1.297,47 1,46.703 1,24 1,1.297 1.297,1 24,1 46.703,1 47,1.297 47,24 z" style="fill:url(#linearGradient3764);fill-opacity:1"/>
 </g>
 <g>
  
 </g>
 <g transform="matrix(3.543307,0,0,3.543307,1.0000004,1.0000016)" style="fill:#000;opacity:0.1;fill-opacity:1">
  <path transform="matrix(0.28222223,0,0,0.28222223,-0.28222222,-0.28222271)" d="m 25,12 c -1.112,0 -2.212,0.195 -3.281,0.563 -1.073,0.367 -2.028,0.863 -2.875,1.5 -0.851,0.64 -1.54,1.441 -2.063,2.406 -0.519,0.965 -0.781,2.01 -0.781,3.125 0,1.75 0.602,3.254 1.813,4.531 0.528,0.551 0.965,1.039 1.313,1.469 0.344,0.425 0.679,0.977 1.031,1.625 0.346,0.641 0.539,1.227 0.594,1.781 0.017,0.001 0.034,0.017 0.051,0.027 l -0.037,0 c -0.551,0.317 -0.826,0.782 -0.826,1.391 0,0.418 0.143,0.777 0.439,1.082 -0.293,0.305 -0.439,0.664 -0.439,1.082 0,0.59 0.264,1.047 0.791,1.371 -0.157,0.262 -0.227,0.527 -0.227,0.797 0,0.519 0.184,0.918 0.555,1.203 0.367,0.281 0.821,0.422 1.363,0.422 0.231,0.496 0.58,0.891 1.053,1.184 0.464,0.293 0.973,0.441 1.527,0.441 0.55,0 1.053,-0.148 1.525,-0.441 0.473,-0.293 0.825,-0.688 1.059,-1.184 0.539,0 0.987,-0.141 1.354,-0.422 0.371,-0.285 0.559,-0.683 0.559,-1.203 0,-0.27 -0.077,-0.535 -0.229,-0.797 0.527,-0.324 0.787,-0.781 0.787,-1.371 0,-0.418 -0.145,-0.777 -0.438,-1.082 0.293,-0.305 0.438,-0.664 0.438,-1.082 0,-0.61 -0.276,-1.075 -0.822,-1.391 l -0.051,0 C 29.195,29.026 29.209,29.01 29.22,29 c 0.051,-0.554 0.276,-1.141 0.625,-1.781 0.352,-0.648 0.683,-1.199 1.031,-1.625 0.348,-0.43 0.786,-0.918 1.313,-1.469 1.207,-1.277 1.813,-2.781 1.813,-4.531 0,-1.121 -0.262,-2.16 -0.781,-3.125 C 32.697,15.504 32.01,14.704 31.158,14.063 30.311,13.426 29.356,12.93 28.283,12.563 27.214,12.196 26.114,12 25.002,12 Z" style="stroke:none;fill-rule:nonzero"/>
 </g>
 <g>
  <g transform="scale(3.543307,3.543307)">
   <path d="m 24,11 c -1.112,0 -2.212,0.194 -3.281,0.563 -1.073,0.367 -2.028,0.863 -2.875,1.5 -0.851,0.64 -1.54,1.441 -2.063,2.406 -0.519,0.965 -0.781,2.01 -0.781,3.125 0,1.75 0.601,3.254 1.813,4.531 0.528,0.551 0.966,1.039 1.314,1.469 0.344,0.425 0.677,0.977 1.029,1.625 0.346,0.641 0.541,1.227 0.596,1.781 l 2.25,2 3.998,0 2.219,-2 c 0.051,-0.554 0.276,-1.141 0.625,-1.781 0.352,-0.648 0.683,-1.199 1.031,-1.625 0.348,-0.43 0.785,-0.918 1.313,-1.469 1.207,-1.277 1.814,-2.781 1.814,-4.531 0,-1.121 -0.262,-2.16 -0.781,-3.125 C 31.697,14.504 31.009,13.704 30.157,13.063 29.31,12.426 28.355,11.93 27.282,11.563 26.213,11.196 25.115,11 24.003,11" transform="scale(0.28222223,0.28222223)" style="fill:#efdf81;fill-opacity:1;stroke:none;fill-rule:nonzero"/>
   <path d="M 7.968,7.91 C 8.122,7.999 8.2,8.13 8.2,8.303 8.2,8.421 8.159,8.522 8.076,8.608 8.159,8.694 8.2,8.795 8.2,8.913 8.2,9.08 8.126,9.208 7.977,9.3 8.02,9.374 8.042,9.449 8.042,9.525 8.042,9.672 7.989,9.784 7.884,9.865 7.78,9.944 7.654,9.984 7.502,9.984 7.436,10.124 7.337,10.235 7.203,10.318 7.07,10.401 6.927,10.442 6.772,10.442 6.615,10.442 6.472,10.4 6.341,10.318 6.208,10.235 6.109,10.124 6.043,9.984 5.89,9.984 5.762,9.944 5.659,9.865 5.554,9.785 5.502,9.672 5.502,9.525 5.502,9.449 5.522,9.374 5.566,9.3 5.417,9.209 5.342,9.08 5.342,8.913 5.342,8.795 5.384,8.694 5.466,8.608 5.382,8.522 5.342,8.421 5.342,8.303 5.342,8.131 5.42,8 5.576,7.91" style="fill:#c6caca;fill-opacity:1;stroke:none;fill-rule:nonzero"/>
   <path d="M 5.556,9.313 C 5.519,9.381 5.503,9.455 5.503,9.525 c 0,0.025 0.006,0.048 0.009,0.071 l 2.523,0 c 0,-0.023 0.009,-0.046 0.009,-0.071 0,-0.07 -0.017,-0.143 -0.053,-0.212 l -2.434,0 z" style="fill:#dde5e5;fill-opacity:1;stroke:none"/>
   <path d="M 5.379,8.749 C 5.358,8.8 5.344,8.858 5.344,8.917 c 0,0.042 0.008,0.078 0.018,0.115 l 2.822,0 C 8.193,8.995 8.202,8.959 8.202,8.917 8.202,8.858 8.187,8.8 8.167,8.749 l -2.787,0 z" style="fill:#dde5e5;fill-opacity:1;stroke:none"/>
   <path d="M 5.362,8.184 C 5.361,8.222 5.344,8.256 5.344,8.299 c 0,0.059 0.006,0.117 0.027,0.168 l 2.796,0 C 8.188,8.416 8.202,8.358 8.202,8.299 8.202,8.256 8.194,8.222 8.184,8.184 l -2.822,0 z" style="fill:#dde5e5;fill-opacity:1;stroke:none"/>
  </g>
  <g>
   <path d="m 24 15 0 4 -4 0 0 2 4 0 0 4 2 0 0 -4 4 0 0 -2 -4 0 0 -4 z" style="fill:#000;opacity:1;fill-opacity:0.098;stroke:none"/>
   <g>
    <path d="m 23 14 l 0 4 l -4 0 l 0 2 l 4 0 l 0 4 l 2 0 l 0 -4 l 4 0 l 0 -2 l -4 0 l 0 -4 l -2 0 z" style="fill:#d5584f;opacity:1;fill-opacity:1;stroke:none"/>
   </g>
  </g>
 </g>
</svg>
